Origami/32x32/apps/resolve.svg

<svg width="32" height="32" version="1.1" viewBox="0 0 32 32" xmlns="http://www.w3.org/2000/svg">
 <path d="m16.94341 31h-0.859705c-0.03987-0.0145-0.07989-0.01813-0.120132-0.01813-0.458998-0.02175-0.91466-0.05872-1.366335-0.120133-0.844915-0.109325-1.675693-0.295142-2.484358-0.55346-1.387867-0.444135-2.68105-1.081482-3.8795475-1.912042-1.1113525-0.77227-2.094525-1.682653-2.95075-2.731293-1.0094175-1.23105-1.79597-2.589627-2.3535675-4.082475-0.499235-1.325662-0.7978625-2.698377-0.88914-4.115245 0-0.076487-0.0145-0.152975-0.039875-0.229462v-1.496835c0.025375-0.065975 0.03625-0.13485 0.039875-0.203943 0.018125-0.338792 0.054375-0.677585 0.0986-1.01239 0.2187325-1.616895 0.6992625-3.150487 1.4389075-4.603677 0.509965-1.00166 1.1293325-1.933575 1.857595-2.79357 0.721375-0.85202 1.5301125-1.6134875 2.425995-2.2797625 1.460875-1.08547 3.0674755-1.8683975 4.8231355-2.348855 0.85231-0.2327975 1.723252-0.3857725 2.60449-0.4588525 0.156455-0.0145 0.32074 0 0.477195-0.039875h1.471677c0.11281 0.032625 0.229535 0.0145 0.342272 0.025375 0.58319 0.05075 1.16232 0.1240475 1.737535 0.236785 1.810615 0.3569175 3.489715 1.0345025 5.041868 2.03551 1.205965 0.7756775 2.269612 1.71158 3.19841 2.8004575 0.746967 0.8741325 1.380472 1.8247525 1.897905 2.8513525 0.611972 1.212997 1.04893 2.483705 1.29717 3.82017 0.130935 0.70644 0.229535 1.420275 0.23287 2.141432 0 0.04785 0.01088 0.0986 0.0145 0.14558v0.859561c-0.0145 0.05437-0.0145 0.112737-0.01813 0.171027 0 0.138257 0 0.277095-0.01087 0.41528-0.06598 0.881528-0.204015 1.751745-0.422748 2.61116-0.418832 1.613487-1.093155 3.110323-2.029347 4.49036-0.695928 1.027107-1.508 1.95228-2.440785 2.771457-0.928798 0.815843-1.945465 1.50423-3.04935 2.061103-1.27165 0.640755-2.608477 1.08547-4.011063 1.32907-0.538964 0.09461-1.081845 0.156383-1.628132 0.189225-0.143912 0.01667-0.29696 0.01305-0.446527 0.04495z" style="opacity:.2"/>
 <path d="m16.94341 30h-0.859705c-0.03987-0.0145-0.07989-0.01813-0.120132-0.01813-0.458998-0.02175-0.91466-0.05872-1.366335-0.120133-0.844915-0.109325-1.675693-0.295142-2.484358-0.55346-1.387867-0.444135-2.68105-1.081482-3.8795475-1.912042-1.1113525-0.77227-2.094525-1.682653-2.95075-2.731293-1.0094175-1.23105-1.79597-2.589627-2.3535675-4.082475-0.499235-1.325662-0.7978625-2.698377-0.88914-4.115245 0-0.076487-0.0145-0.152975-0.039875-0.229462v-1.496835c0.025375-0.065975 0.03625-0.13485 0.039875-0.203943 0.018125-0.338792 0.054375-0.677585 0.0986-1.01239 0.2187325-1.616895 0.6992625-3.150487 1.4389075-4.603677 0.509965-1.00166 1.1293325-1.933575 1.857595-2.79357 0.721375-0.85202 1.5301125-1.6134875 2.425995-2.2797625 1.460875-1.08547 3.0674755-1.8683975 4.8231355-2.348855 0.85231-0.2327975 1.723252-0.3857725 2.60449-0.4588525 0.156455-0.0145 0.32074 0 0.477195-0.039875h1.471677c0.11281 0.032625 0.229535 0.0145 0.342272 0.025375 0.58319 0.05075 1.16232 0.1240475 1.737535 0.236785 1.810615 0.3569175 3.489715 1.0345025 5.041868 2.03551 1.205965 0.7756775 2.269612 1.71158 3.19841 2.8004575 0.746967 0.8741325 1.380472 1.8247525 1.897905 2.8513525 0.611972 1.212997 1.04893 2.483705 1.29717 3.82017 0.130935 0.70644 0.229535 1.420275 0.23287 2.141432 0 0.04785 0.01088 0.0986 0.0145 0.14558v0.859561c-0.0145 0.05437-0.0145 0.112737-0.01813 0.171027 0 0.138257 0 0.277095-0.01087 0.41528-0.06598 0.881528-0.204015 1.751745-0.422748 2.61116-0.418832 1.613487-1.093155 3.110323-2.029347 4.49036-0.695928 1.027107-1.508 1.95228-2.440785 2.771457-0.928798 0.815843-1.945465 1.50423-3.04935 2.061103-1.27165 0.640755-2.608477 1.08547-4.011063 1.32907-0.538964 0.09461-1.081845 0.156383-1.628132 0.189225-0.143912 0.01667-0.29696 0.01305-0.446527 0.04495z" style="fill:#4f4f4f"/>
 <path d="m11.552578 22.999017c0.217577 0.0066 0.461875-0.02031 0.706108-0.07218 0.722587-0.158178 1.33632-0.486717 1.807977-1.069194 0.286842-0.355197 0.527989-0.740129 0.735849-1.144974 0.244364-0.477024 0.448547-0.974025 0.626601-1.477117 0.217577-0.608545 0.402326-1.230385 0.544533-1.858906 0.07898-0.352118-0.0098-0.572716-0.399242-0.694019-0.494702-0.154576-0.993081-0.292778-1.501109-0.404845-0.841093-0.184312-1.688882-0.302536-2.553609-0.27339-0.244298 0.0098-0.488072 0.03602-0.729218 0.07879-0.699477 0.121893-1.2931855 0.444341-1.7781048 0.954114-0.8282894 0.868572-1.1577407 1.90495-0.9534914 3.086277 0.2935387 1.688021 1.7914974 2.888735 3.4937062 2.875439z" style="opacity:.2"/>
 <path d="m11.552578 21.999017c0.217577 0.0066 0.461875-0.02031 0.706108-0.07218 0.722587-0.158178 1.33632-0.486717 1.807977-1.069194 0.286842-0.355197 0.527989-0.740129 0.735849-1.144974 0.244364-0.477024 0.448547-0.974025 0.626601-1.477117 0.217577-0.608545 0.402326-1.230385 0.544533-1.858906 0.07898-0.352118-0.0098-0.572716-0.399242-0.694019-0.494702-0.154576-0.993081-0.292778-1.501109-0.404845-0.841093-0.184312-1.688882-0.302536-2.553609-0.27339-0.244298 0.0098-0.488072 0.03602-0.729218 0.07879-0.699477 0.121893-1.2931855 0.444341-1.7781048 0.954114-0.8282894 0.868572-1.1577407 1.90495-0.9534914 3.086277 0.2935387 1.688021 1.7914974 2.888735 3.4937062 2.875439z" style="fill:#e9ff61"/>
 <path d="m13.001316 10.691052c-0.0098 0.257242 0.0359 0.538454 0.111687 0.819732 0.14439 0.535177 0.38369 1.025554 0.665877 1.488754 0.642835 1.053348 1.453101 1.955163 2.332234 2.792447 0.072 0.06883 0.157707 0.126948 0.249484 0.171266 0.09191 0.0478 0.183686 0.0478 0.278662 0.0068 0.09178-0.04097 0.173894-0.09929 0.242826-0.175022 0.305098-0.315425 0.606672-0.631326 0.895451-0.957334 0.406668-0.4632 0.793948-0.939716 1.144935-1.450922 0.318415-0.463132 0.603605-0.950369 0.813335-1.478648 0.209731-0.525068 0.311692-1.066663 0.242826-1.636119-0.11482-0.9396619-0.498445-1.7358355-1.184166-2.3601272-0.810789-0.7369673-1.755198-1.0320414-2.818016-0.8676712-1.72863 0.2678948-2.981793 1.8596272-2.975135 3.6467324z" style="opacity:.2"/>
 <path d="m13.001316 9.6910521c-0.0098 0.257242 0.0359 0.5384539 0.111687 0.8197319 0.14439 0.535177 0.38369 1.025554 0.665877 1.488754 0.642835 1.053348 1.453101 1.955163 2.332234 2.792447 0.072 0.06883 0.157707 0.126948 0.249484 0.171266 0.09191 0.0478 0.183686 0.0478 0.278662 0.0068 0.09178-0.04097 0.173894-0.09929 0.242826-0.175022 0.305098-0.315425 0.606672-0.631326 0.895451-0.957334 0.406668-0.4632 0.793948-0.939716 1.144935-1.450922 0.318415-0.463132 0.603605-0.950369 0.813335-1.478648 0.209731-0.525068 0.311692-1.0666629 0.242826-1.6361189-0.11482-0.939662-0.498445-1.7358356-1.184166-2.3601273-0.810789-0.7369673-1.755198-1.0320414-2.818016-0.8676712-1.72863 0.2678948-2.981793 1.8596272-2.975135 3.6467325z" style="fill:#10b7d6"/>
 <path d="m21.447427 22.999017c-0.217577 0.0066-0.461875-0.02031-0.706107-0.07218-0.722587-0.158178-1.336321-0.486717-1.807978-1.069194-0.286842-0.355197-0.527988-0.740129-0.735848-1.144974-0.244364-0.477024-0.448548-0.974025-0.626601-1.477117-0.217577-0.608545-0.402327-1.230385-0.544534-1.858906-0.07898-0.352118 0.0098-0.572716 0.399242-0.694019 0.494702-0.154576 0.99308-0.292778 1.50111-0.404845 0.841092-0.184312 1.688882-0.302536 2.553609-0.27339 0.244298 0.0098 0.488071 0.03602 0.729218 0.07879 0.699476 0.121893 1.293185 0.444341 1.778105 0.954114 0.828288 0.868572 1.15774 1.90495 0.95349 3.086277-0.293538 1.688021-1.791497 2.888735-3.493706 2.875439z" style="opacity:.2"/>
 <path d="m21.447427 21.999017c-0.217577 0.0066-0.461875-0.02031-0.706107-0.07218-0.722587-0.158178-1.336321-0.486717-1.807978-1.069194-0.286842-0.355197-0.527988-0.740129-0.735848-1.144974-0.244364-0.477024-0.448548-0.974025-0.626601-1.477117-0.217577-0.608545-0.402327-1.230385-0.544534-1.858906-0.07898-0.352118 0.0098-0.572716 0.399242-0.694019 0.494702-0.154576 0.99308-0.292778 1.50111-0.404845 0.841092-0.184312 1.688882-0.302536 2.553609-0.27339 0.244298 0.0098 0.488071 0.03602 0.729218 0.07879 0.699476 0.121893 1.293185 0.444341 1.778105 0.954114 0.828288 0.868572 1.15774 1.90495 0.95349 3.086277-0.293538 1.688021-1.791497 2.888735-3.493706 2.875439z" style="fill:#ff5e5e"/>
 <path d="m15.765625 1c-0.156455 0.039875-0.320108 0.0245625-0.476563 0.0390625-0.881238 0.07308-1.753158 0.2261869-2.605468 0.4589844-1.75566 0.4804575-3.3613909 1.2641394-4.8222659 2.3496093-0.8958825 0.6662751-1.7044062 1.4272769-2.4257812 2.2792969-0.7282625 0.859995-1.3474569 1.7932619-1.8574219 2.7949219-0.739645 1.45319-1.2207206 2.986621-1.4394531 4.603516-0.044225 0.334805-0.0814844 0.672926-0.0996094 1.011718-0.003625 0.069093-0.0136875 0.13715-0.0390625 0.203125v1c0.025375-0.065975 0.0354375-0.134032 0.0390625-0.203125 0.018125-0.338792 0.0553844-0.676913 0.0996094-1.011718 0.2187325-1.616895 0.6998081-3.150326 1.4394531-4.603516 0.509965-1.00166 1.1291594-1.9349269 1.8574219-2.7949219 0.721375-0.85202 1.5298987-1.6130218 2.4257812-2.2792969 1.460875-1.0854699 3.0666059-1.8691518 4.8222659-2.3496093 0.85231-0.2327975 1.72423-0.3859044 2.605468-0.4589844 0.156455-0.0145 0.320108 8.125e-4 0.476563-0.0390625h1.472656c0.11281 0.032625 0.22906 0.0145156 0.341797 0.0253906 0.58319 0.05075 1.161113 0.1235906 1.736328 0.2363282 1.810615 0.3569174 3.490816 1.0341487 5.042969 2.0351562 1.205965 0.7756775 2.268468 1.7119038 3.197266 2.8007812 0.746967 0.8741325 1.381004 1.8249625 1.898437 2.8515626 0.611972 1.2129972 1.048635 2.4838472 1.296875 3.8203122 0.130935 0.70644 0.23104 1.419468 0.234375 2.140625 0 0.023579 0.002746 0.048076 0.00586 0.072266 0.002319-0.022 0.002201-0.045367 0.007812-0.066406v-0.859375c-0.00362-0.04698-0.013672-0.098635-0.013672-0.146485-0.003335-0.721157-0.10344-1.434185-0.234375-2.140625-0.24824-1.336465-0.684903-2.607315-1.296875-3.8203122-0.517433-1.0266001-1.15147-1.9774301-1.898437-2.8515626-0.928798-1.0888775-1.991301-2.0251037-3.197266-2.8007812-1.552153-1.0010075-3.232354-1.6782388-5.042969-2.0351562-0.575215-0.1127375-1.153138-0.1855782-1.736328-0.2363282-0.112737-0.010875-0.228987 0.0072344-0.341797-0.0253906h-1.472656z" style="fill:#ffffff;opacity:.1"/>
 <path d="m11.519531 15.003906c-0.244298 0.0098-0.487369 0.037308-0.728515 0.080078-0.699477 0.121893-1.294378 0.443352-1.7792972 0.953125-0.7783052 0.816157-1.0963601 1.785385-0.9648438 2.878907 0.1108773-0.691063 0.4323262-1.320491 0.9648438-1.878907 0.4849192-0.509773 1.0798202-0.831232 1.7792972-0.953125 0.241146-0.04277 0.484217-0.070278 0.728515-0.080078 0.864727-0.029146 1.713595 0.089126 2.554688 0.273438 0.508028 0.112067 1.005298 0.251674 1.5 0.40625 0.127191 0.039617 0.211617 0.094326 0.279297 0.15625 0.040159-0.154297 0.085976-0.30768 0.121093-0.462891 0.07898-0.352118-0.010948-0.572056-0.40039-0.693359-0.494702-0.154576-0.991972-0.294183-1.5-0.40625-0.841093-0.184312-1.689961-0.302584-2.554688-0.273438z" style="fill:#ffffff;opacity:.1"/>
 <path d="m16.751953 6.0058594c-0.250666-0.0160638-0.509686-0.0020301-0.775391 0.0390625-1.72863 0.2678948-2.981267 1.859379-2.974609 3.6464843-0.00595 0.1561846 0.013689 0.3217278 0.042969 0.4902348 0.207134-1.5710067 1.369884-2.8946856 2.93164-3.1367191 1.062819-0.1643702 2.007571 0.1302202 2.81836 0.8671875 0.652099 0.5936822 1.021916 1.3464187 1.15625 2.2265626 0.04763-0.2824742 0.063132-0.5712558 0.027344-0.8671876-0.11482-0.939662-0.497873-1.7350833-1.183594-2.359375-0.608092-0.5527255-1.290972-0.8580588-2.042969-0.90625z" style="fill:#ffffff;opacity:.1"/>
 <path d="m21.480469 15.003906c-0.864727-0.029146-1.713596 0.089126-2.554688 0.273438-0.50803 0.112067-1.005298 0.251674-1.5 0.40625-0.389442 0.121303-0.47937 0.341241-0.40039 0.693359 0.035117 0.155211 0.080933 0.308594 0.121093 0.462891 0.06768-0.061924 0.152106-0.116633 0.279297-0.15625 0.494702-0.154576 0.99197-0.294183 1.5-0.40625 0.841092-0.184312 1.689961-0.302584 2.554688-0.273438 0.244298 0.0098 0.487368 0.037308 0.728515 0.080078 0.699476 0.121893 1.294377 0.443352 1.779297 0.953125 0.532517 0.558416 0.853967 1.187844 0.964844 1.878907 0.131517-1.093522-0.18654-2.06275-0.964844-2.878907-0.48492-0.509773-1.079821-0.831232-1.779297-0.953125-0.241147-0.04277-0.484217-0.070278-0.728515-0.080078z" style="fill:#ffffff;opacity:.1"/>
</svg>

<svg xmlns="http://www.w3.org/2000/svg" width="32" height="32" version="1.1" viewBox="0 0 32 32">
 <path style="opacity:0.2" d="m 16.94341,31 -0.859705,0 c -0.03987,-0.0145 -0.07989,-0.01813 -0.120132,-0.01813 -0.458998,-0.02175 -0.91466,-0.05872 -1.366335,-0.120133 C 13.752323,30.752412 12.921545,30.566595 12.11288,30.308277 10.725013,29.864142 9.43183,29.226795 8.2333325,28.396235 7.12198,27.623965 6.1388075,26.713582 5.2825825,25.664942 4.273165,24.433892 3.4866125,23.075315 2.929015,21.582467 2.42978,20.256805 2.1311525,18.88409 2.039875,17.467222 2.039875,17.390735 2.025375,17.314247 2,17.23776 L 2,15.740925 C 2.025375,15.67495 2.03625,15.606075 2.039875,15.536982 2.058,15.19819 2.09425,14.859397 2.138475,14.524592 2.3572075,12.907697 2.8377375,11.374105 3.5773825,9.920915 4.0873475,8.919255 4.706715,7.98734 5.4349775,7.127345 6.1563525,6.275325 6.96509,5.5138575 7.8609725,4.8475825 9.3218475,3.7621125 10.928448,2.979185 12.684108,2.4987275 13.536418,2.26593 14.40736,2.112955 15.288598,2.039875 c 0.156455,-0.0145 0.32074,0 0.477195,-0.039875 l 1.471677,0 c 0.11281,0.032625 0.229535,0.0145 0.342272,0.025375 0.58319,0.05075 1.16232,0.1240475 1.737535,0.236785 1.810615,0.3569175 3.489715,1.0345025 5.041868,2.03551 1.205965,0.7756775 2.269612,1.71158 3.19841,2.8004575 0.746967,0.8741325 1.380472,1.8247525 1.897905,2.8513525 0.611972,1.212997 1.04893,2.483705 1.29717,3.82017 0.130935,0.70644 0.229535,1.420275 0.23287,2.141432 0,0.04785 0.01088,0.0986 0.0145,0.14558 l 0,0.859561 c -0.0145,0.05437 -0.0145,0.112737 -0.01813,0.171027 0,0.138257 0,0.277095 -0.01087,0.41528 -0.06598,0.881528 -0.204015,1.751745 -0.422748,2.61116 -0.418832,1.613487 -1.093155,3.110323 -2.029347,4.49036 -0.695928,1.027107 -1.508,1.95228 -2.440785,2.771457 -0.928798,0.815843 -1.945465,1.50423 -3.04935,2.061103 -1.27165,0.640755 -2.608477,1.08547 -4.011063,1.32907 -0.538964,0.09461 -1.081845,0.156383 -1.628132,0.189225 -0.143912,0.01667 -0.29696,0.01305 -0.446527,0.04495 z"/>
 <path style="fill:#4f4f4f" d="m 16.94341,30 -0.859705,0 c -0.03987,-0.0145 -0.07989,-0.01813 -0.120132,-0.01813 -0.458998,-0.02175 -0.91466,-0.05872 -1.366335,-0.120133 C 13.752323,29.752412 12.921545,29.566595 12.11288,29.308277 10.725013,28.864142 9.43183,28.226795 8.2333325,27.396235 7.12198,26.623965 6.1388075,25.713582 5.2825825,24.664942 4.273165,23.433892 3.4866125,22.075315 2.929015,20.582467 2.42978,19.256805 2.1311525,17.88409 2.039875,16.467222 2.039875,16.390735 2.025375,16.314247 2,16.23776 L 2,14.740925 C 2.025375,14.67495 2.03625,14.606075 2.039875,14.536982 2.058,14.19819 2.09425,13.859397 2.138475,13.524592 2.3572075,11.907697 2.8377375,10.374105 3.5773825,8.920915 4.0873475,7.919255 4.706715,6.98734 5.4349775,6.127345 6.1563525,5.275325 6.96509,4.5138575 7.8609725,3.8475825 9.3218475,2.7621125 10.928448,1.979185 12.684108,1.4987275 13.536418,1.26593 14.40736,1.112955 15.288598,1.039875 c 0.156455,-0.0145 0.32074,0 0.477195,-0.039875 l 1.471677,0 c 0.11281,0.032625 0.229535,0.0145 0.342272,0.025375 0.58319,0.05075 1.16232,0.1240475 1.737535,0.236785 1.810615,0.3569175 3.489715,1.0345025 5.041868,2.03551 1.205965,0.7756775 2.269612,1.71158 3.19841,2.8004575 0.746967,0.8741325 1.380472,1.8247525 1.897905,2.8513525 0.611972,1.212997 1.04893,2.483705 1.29717,3.82017 0.130935,0.70644 0.229535,1.420275 0.23287,2.141432 0,0.04785 0.01088,0.0986 0.0145,0.14558 l 0,0.859561 c -0.0145,0.05437 -0.0145,0.112737 -0.01813,0.171027 0,0.138257 0,0.277095 -0.01087,0.41528 -0.06598,0.881528 -0.204015,1.751745 -0.422748,2.61116 -0.418832,1.613487 -1.093155,3.110323 -2.029347,4.49036 -0.695928,1.027107 -1.508,1.95228 -2.440785,2.771457 -0.928798,0.815843 -1.945465,1.50423 -3.04935,2.061103 -1.27165,0.640755 -2.608477,1.08547 -4.011063,1.32907 -0.538964,0.09461 -1.081845,0.156383 -1.628132,0.189225 -0.143912,0.01667 -0.29696,0.01305 -0.446527,0.04495 z"/>
 <path style="opacity:0.2" d="m 11.552578,22.999017 c 0.217577,0.0066 0.461875,-0.02031 0.706108,-0.07218 0.722587,-0.158178 1.33632,-0.486717 1.807977,-1.069194 0.286842,-0.355197 0.527989,-0.740129 0.735849,-1.144974 0.244364,-0.477024 0.448547,-0.974025 0.626601,-1.477117 0.217577,-0.608545 0.402326,-1.230385 0.544533,-1.858906 0.07898,-0.352118 -0.0098,-0.572716 -0.399242,-0.694019 -0.494702,-0.154576 -0.993081,-0.292778 -1.501109,-0.404845 -0.841093,-0.184312 -1.688882,-0.302536 -2.553609,-0.27339 -0.244298,0.0098 -0.488072,0.03602 -0.729218,0.07879 -0.699477,0.121893 -1.2931855,0.444341 -1.7781048,0.954114 -0.8282894,0.868572 -1.1577407,1.90495 -0.9534914,3.086277 0.2935387,1.688021 1.7914974,2.888735 3.4937062,2.875439 z"/>
 <path style="fill:#e9ff61" d="m 11.552578,21.999017 c 0.217577,0.0066 0.461875,-0.02031 0.706108,-0.07218 0.722587,-0.158178 1.33632,-0.486717 1.807977,-1.069194 0.286842,-0.355197 0.527989,-0.740129 0.735849,-1.144974 0.244364,-0.477024 0.448547,-0.974025 0.626601,-1.477117 0.217577,-0.608545 0.402326,-1.230385 0.544533,-1.858906 0.07898,-0.352118 -0.0098,-0.572716 -0.399242,-0.694019 -0.494702,-0.154576 -0.993081,-0.292778 -1.501109,-0.404845 -0.841093,-0.184312 -1.688882,-0.302536 -2.553609,-0.27339 -0.244298,0.0098 -0.488072,0.03602 -0.729218,0.07879 -0.699477,0.121893 -1.2931855,0.444341 -1.7781048,0.954114 -0.8282894,0.868572 -1.1577407,1.90495 -0.9534914,3.086277 0.2935387,1.688021 1.7914974,2.888735 3.4937062,2.875439 z"/>
 <path style="opacity:0.2" d="m 13.001316,10.691052 c -0.0098,0.257242 0.0359,0.538454 0.111687,0.819732 0.14439,0.535177 0.38369,1.025554 0.665877,1.488754 0.642835,1.053348 1.453101,1.955163 2.332234,2.792447 0.072,0.06883 0.157707,0.126948 0.249484,0.171266 0.09191,0.0478 0.183686,0.0478 0.278662,0.0068 0.09178,-0.04097 0.173894,-0.09929 0.242826,-0.175022 0.305098,-0.315425 0.606672,-0.631326 0.895451,-0.957334 0.406668,-0.4632 0.793948,-0.939716 1.144935,-1.450922 0.318415,-0.463132 0.603605,-0.950369 0.813335,-1.478648 0.209731,-0.525068 0.311692,-1.066663 0.242826,-1.636119 C 19.863813,9.3323441 19.480188,8.5361705 18.794467,7.9118788 17.983678,7.1749115 17.039269,6.8798374 15.976451,7.0442076 14.247821,7.3121024 12.994658,8.9038348 13.001316,10.69094 Z"/>
 <path style="fill:#10b7d6" d="m 13.001316,9.6910521 c -0.0098,0.257242 0.0359,0.5384539 0.111687,0.8197319 0.14439,0.535177 0.38369,1.025554 0.665877,1.488754 0.642835,1.053348 1.453101,1.955163 2.332234,2.792447 0.072,0.06883 0.157707,0.126948 0.249484,0.171266 0.09191,0.0478 0.183686,0.0478 0.278662,0.0068 0.09178,-0.04097 0.173894,-0.09929 0.242826,-0.175022 0.305098,-0.315425 0.606672,-0.631326 0.895451,-0.957334 0.406668,-0.4632 0.793948,-0.939716 1.144935,-1.450922 0.318415,-0.463132 0.603605,-0.950369 0.813335,-1.478648 0.209731,-0.525068 0.311692,-1.0666629 0.242826,-1.6361189 C 19.863813,8.3323441 19.480188,7.5361705 18.794467,6.9118788 17.983678,6.1749115 17.039269,5.8798374 15.976451,6.0442076 14.247821,6.3121024 12.994658,7.9038348 13.001316,9.6909401 Z"/>
 <path style="opacity:0.2" d="m 21.447427,22.999017 c -0.217577,0.0066 -0.461875,-0.02031 -0.706107,-0.07218 -0.722587,-0.158178 -1.336321,-0.486717 -1.807978,-1.069194 -0.286842,-0.355197 -0.527988,-0.740129 -0.735848,-1.144974 -0.244364,-0.477024 -0.448548,-0.974025 -0.626601,-1.477117 -0.217577,-0.608545 -0.402327,-1.230385 -0.544534,-1.858906 -0.07898,-0.352118 0.0098,-0.572716 0.399242,-0.694019 0.494702,-0.154576 0.99308,-0.292778 1.50111,-0.404845 0.841092,-0.184312 1.688882,-0.302536 2.553609,-0.27339 0.244298,0.0098 0.488071,0.03602 0.729218,0.07879 0.699476,0.121893 1.293185,0.444341 1.778105,0.954114 0.828288,0.868572 1.15774,1.90495 0.95349,3.086277 -0.293538,1.688021 -1.791497,2.888735 -3.493706,2.875439 z"/>
 <path style="fill:#ff5e5e" d="m 21.447427,21.999017 c -0.217577,0.0066 -0.461875,-0.02031 -0.706107,-0.07218 -0.722587,-0.158178 -1.336321,-0.486717 -1.807978,-1.069194 -0.286842,-0.355197 -0.527988,-0.740129 -0.735848,-1.144974 -0.244364,-0.477024 -0.448548,-0.974025 -0.626601,-1.477117 -0.217577,-0.608545 -0.402327,-1.230385 -0.544534,-1.858906 -0.07898,-0.352118 0.0098,-0.572716 0.399242,-0.694019 0.494702,-0.154576 0.99308,-0.292778 1.50111,-0.404845 0.841092,-0.184312 1.688882,-0.302536 2.553609,-0.27339 0.244298,0.0098 0.488071,0.03602 0.729218,0.07879 0.699476,0.121893 1.293185,0.444341 1.778105,0.954114 0.828288,0.868572 1.15774,1.90495 0.95349,3.086277 -0.293538,1.688021 -1.791497,2.888735 -3.493706,2.875439 z"/>
 <path style="fill:#ffffff;opacity:0.1" d="M 15.765625 1 C 15.60917 1.039875 15.445517 1.0245625 15.289062 1.0390625 C 14.407824 1.1121425 13.535904 1.2652494 12.683594 1.4980469 C 10.927934 1.9785044 9.3222031 2.7621863 7.8613281 3.8476562 C 6.9654456 4.5139313 6.1569219 5.2749331 5.4355469 6.1269531 C 4.7072844 6.9869481 4.08809 7.920215 3.578125 8.921875 C 2.83848 10.375065 2.3574044 11.908496 2.1386719 13.525391 C 2.0944469 13.860196 2.0571875 14.198317 2.0390625 14.537109 C 2.0354375 14.606202 2.025375 14.674259 2 14.740234 L 2 15.740234 C 2.025375 15.674259 2.0354375 15.606202 2.0390625 15.537109 C 2.0571875 15.198317 2.0944469 14.860196 2.1386719 14.525391 C 2.3574044 12.908496 2.83848 11.375065 3.578125 9.921875 C 4.08809 8.920215 4.7072844 7.9869481 5.4355469 7.1269531 C 6.1569219 6.2749331 6.9654456 5.5139313 7.8613281 4.8476562 C 9.3222031 3.7621863 10.927934 2.9785044 12.683594 2.4980469 C 13.535904 2.2652494 14.407824 2.1121425 15.289062 2.0390625 C 15.445517 2.0245625 15.60917 2.039875 15.765625 2 L 17.238281 2 C 17.351091 2.032625 17.467341 2.0145156 17.580078 2.0253906 C 18.163268 2.0761406 18.741191 2.1489812 19.316406 2.2617188 C 21.127021 2.6186362 22.807222 3.2958675 24.359375 4.296875 C 25.56534 5.0725525 26.627843 6.0087788 27.556641 7.0976562 C 28.303608 7.9717887 28.937645 8.9226187 29.455078 9.9492188 C 30.06705 11.162216 30.503713 12.433066 30.751953 13.769531 C 30.882888 14.475971 30.982993 15.188999 30.986328 15.910156 C 30.986328 15.933735 30.989074 15.958232 30.992188 15.982422 C 30.994507 15.960422 30.994389 15.937055 31 15.916016 L 31 15.056641 C 30.99638 15.009661 30.986328 14.958006 30.986328 14.910156 C 30.982993 14.188999 30.882888 13.475971 30.751953 12.769531 C 30.503713 11.433066 30.06705 10.162216 29.455078 8.9492188 C 28.937645 7.9226187 28.303608 6.9717887 27.556641 6.0976562 C 26.627843 5.0087787 25.56534 4.0725525 24.359375 3.296875 C 22.807222 2.2958675 21.127021 1.6186362 19.316406 1.2617188 C 18.741191 1.1489813 18.163268 1.0761406 17.580078 1.0253906 C 17.467341 1.0145156 17.351091 1.032625 17.238281 1 L 15.765625 1 z"/>
 <path style="fill:#ffffff;opacity:0.1" d="M 11.519531 15.003906 C 11.275233 15.013706 11.032162 15.041214 10.791016 15.083984 C 10.091539 15.205877 9.496638 15.527336 9.0117188 16.037109 C 8.2334136 16.853266 7.9153587 17.822494 8.046875 18.916016 C 8.1577523 18.224953 8.4792012 17.595525 9.0117188 17.037109 C 9.496638 16.527336 10.091539 16.205877 10.791016 16.083984 C 11.032162 16.041214 11.275233 16.013706 11.519531 16.003906 C 12.384258 15.97476 13.233126 16.093032 14.074219 16.277344 C 14.582247 16.389411 15.079517 16.529018 15.574219 16.683594 C 15.70141 16.723211 15.785836 16.77792 15.853516 16.839844 C 15.893675 16.685547 15.939492 16.532164 15.974609 16.376953 C 16.053589 16.024835 15.963661 15.804897 15.574219 15.683594 C 15.079517 15.529018 14.582247 15.389411 14.074219 15.277344 C 13.233126 15.093032 12.384258 14.97476 11.519531 15.003906 z"/>
 <path style="fill:#ffffff;opacity:0.1" d="M 16.751953 6.0058594 C 16.501287 5.9897956 16.242267 6.0038293 15.976562 6.0449219 C 14.247932 6.3128167 12.995295 7.9043009 13.001953 9.6914062 C 12.996003 9.8475908 13.015642 10.013134 13.044922 10.181641 C 13.252056 8.6106343 14.414806 7.2869554 15.976562 7.0449219 C 17.039381 6.8805517 17.984133 7.1751421 18.794922 7.9121094 C 19.447021 8.5057916 19.816838 9.2585281 19.951172 10.138672 C 19.998802 9.8561978 20.014304 9.5674162 19.978516 9.2714844 C 19.863696 8.3318224 19.480643 7.5364011 18.794922 6.9121094 C 18.18683 6.3593839 17.50395 6.0540506 16.751953 6.0058594 z"/>
 <path style="fill:#ffffff;opacity:0.1" d="M 21.480469 15.003906 C 20.615742 14.97476 19.766873 15.093032 18.925781 15.277344 C 18.417751 15.389411 17.920483 15.529018 17.425781 15.683594 C 17.036339 15.804897 16.946411 16.024835 17.025391 16.376953 C 17.060508 16.532164 17.106324 16.685547 17.146484 16.839844 C 17.214164 16.77792 17.29859 16.723211 17.425781 16.683594 C 17.920483 16.529018 18.417751 16.389411 18.925781 16.277344 C 19.766873 16.093032 20.615742 15.97476 21.480469 16.003906 C 21.724767 16.013706 21.967837 16.041214 22.208984 16.083984 C 22.90846 16.205877 23.503361 16.527336 23.988281 17.037109 C 24.520798 17.595525 24.842248 18.224953 24.953125 18.916016 C 25.084642 17.822494 24.766585 16.853266 23.988281 16.037109 C 23.503361 15.527336 22.90846 15.205877 22.208984 15.083984 C 21.967837 15.041214 21.724767 15.013706 21.480469 15.003906 z"/>
</svg>
